X:1
T:Title
%%score { ( 1 4 ) | ( 2 3 ) }
L:1/8
Q:1/4=106
M:4/4
K:G
V:1 treble nm="Grand Piano"
V:4 treble 
V:2 treble 
V:3 treble 
V:1
 B>B B>B [DGB]2 [CDFA]2 | [B,DG]8 | [EG]>[EG] [EG]>[EA] [EG]2 [G,CE]2 | [B,D]8 | F2 G2 A2 D2 | %5
w: A.~Tee * * * * *|||||
 [DG]2 [DA]2 [DB]4 | [^CEA]>[CEA] [CEA]>[CEA] [CEA]2 [GAce]2 | [FAd]8[K:bass] | %8
w: |||
 B>B B>B [DGB]2 [CDFA]2 | [B,DG]8 | [EG]>[EG] [EG]>[EA] [EG]2 [G,CE]2 | [B,D]8 | %12
w: ||||
 [B,DG]2 [B,DG]2 [DFA]2 [DFA]2 | [DGB]2 [DAc]2 [DGBd]2 [EGc]2 | [GB]>[GB] [GB]>[GB] [GB]2 [CDFA]2 | %15
w: |||
 [B,DG]8 |] %16
w: |
V:2
 [G,DG]>[G,DG] [G,DG]>[G,DG][K:bass] D,2 D,2 | z2 G,2 D,2 G,,2 | %2
 [C,C]>[C,C] [C,C]>[C,C] [C,C]2 C,2 | z2 G,2 D,2 G,,2 | [D,A,D]2 [E,A,^C]2 [F,A,D]2 [D,F,A,=C]2 | %5
 [B,,G,B,]2 [A,,F,]2 [G,,G,]4 | [A,,A,]>[A,,A,] [A,,A,]>[A,,A,] [A,,A,]2 [A,,A,]2 | A,8 | %8
 [G,DG]>[G,DG] [G,DG]>[G,DG][K:bass] D,2 D,2 | z2 G,2 D,2 G,,2 | %10
 [C,C]>[C,C] [C,C]>[C,C] [C,C]2 C,2 | z2 G,2 D,2 G,,2 | G,,2 G,,2 D,2 D,C, | %13
 [B,,G,]2 [A,,F,]2 [G,,G,]2 C,2 | [D,D]>[D,D] [D,D]>[D,D] [D,D]2 D,2 | G,,8 |] %16
V:3
 x4[K:bass] x4 | G,,6 z2 | x8 | G,,6 z2 | x8 | x8 | x8 | D,4 z4 | x4[K:bass] x4 | G,,6 z2 | x8 | %11
 G,,6 z2 | x8 | x8 | x8 | x8 |] %16
V:4
 x8 | x8 | x8 | x8 | x8 | x8 | x8 | z4[K:bass] D,,4 | x8 | x8 | x8 | x8 | x8 | x8 | x8 | x8 |] %16

